X:1
T:Georges Bizet
T:Parles moi de ma mère
T:Carmen, Acte 1: Duo Micaela - Don José
%%score 1 2 { ( 3 5 ) | ( 4 6 ) }
L:1/8
M:3/4
K:Bb
V:1 treble transpose=-2 nm="B♭ Clarinet" snm="B♭ Cl."
V:2 treble transpose=-2 nm="B♭ Clarinet" snm="B♭ Cl."
V:3 treble nm="Piano" snm="Pia."
V:5 treble 
V:4 bass 
V:6 bass 
V:1
[K:C] z2[Q:1/4=80]"^Andantino non troppo"!p! cB (3cd_e | _e2 A2 z2 | z2 .f!<(!=e (3fga!<)! | %3
w: Par- le moi de ma|mè- re!|Par- le moi de ma|
 !>!a2 B2 z2 | z6 | z6 | z6 | z2 z B/B/ (ee) | z6 | z6 | z6 | z6 | z4 z _A | A2- A z z2 | z6 | %15
w: mè- re!||||U- ne let- tre|||||Et|puis? *||
[Q:1/4=80] z6 | z6 | z6 | z6 | z6 | z6 | z6 | z6 | z2 z!<(! e ag!<)! | g2 f z e^c | e2 d z c_A | %26
w: ||||||||Cette au- tre|cho- se, quelle est|el- le? Par- le|
 B2 z4 | z6 | z6 | z6 |[Q:1/4=86] z6 | z6 | z6 | z6 | z6 |[M:4/4] z8 | z8 | z8 | z8 | z8 | z8 | %41
w: donc!|||||||||||||||
[M:2/4] z4 | z4 | z4 | z4 | z4 | z4 | z4 | z4 | z4 | z4 | z4 | z4 | z4 | z4 | z4 | %56
w: |||||||||||||||
[M:4/4][Q:1/4=88]"^Poco meno mosso" z8 | z8 | z8 | z8 | z8 | z8 | z8 | z8 | z8 | z8 | z8 | z8 | %68
w: ||||||||||||
 z8 | z8 | z8 | z8 |[Q:1/4=100]"^a tempo\nun poco animato" z2 cc g2 g>g | g2 f z z4 | %74
w: ||||Un bai- ser de ma|mè- re!|
 z2"^cresc"!<(! dd a2 a>a!<)! | a2 g z z4 | z8 | z8 |[Q:1/4=100] z8 | z8 | z8 | %81
w: Un bai- ser de ma|mè- re!||||||
 z2[Q:1/4=85] z4 z!pp! E |[K:A][M:3/4] e2- ec fc | e2- e/ z/ f ga | (g2- gf) dB | G2- G/ z/ A B^B | %86
w: Ma|mè- * re, je la|vois! * oui, je re-|vois * * mon vil-|la- ge! Ô sou- ve-|
 (c2- cA) dA |"^cresc"!<(! c2- c/ z/ ^d!<)! ef | g2 g2 g2 |"^dim"!>(! g4- g-!>)!g/ z/ | %90
w: nirs * * d'au- tre-|fois, * doux sou- ve-|nirs du pa-|ys! * *|
!pp! a2 gf e2 | (g2 f/) z/ e A-A/ z/ | f2 ed BG | E2- E z E2 | e4 f2 | e/ z/ A Bc de | f2- fd =gd | %97
w: Doux sou- ve- nirs|du * pa- ys! *|Ô sou- ve- nirs ché-|ris! * Ô|sou- ve-|nirs! Ô sou- ve- nirs ché-|ris * Vous rem- plis-|
 f2- f z!<(! d2!<)! |!f! _b2- b z (a=g) | =f2- f^f{fa} =g>_e |!<(! _e2 d4-!<)! | %101
w: sez * mon|coeur * de *|for- * ce~et de cou-|ra- ge|
 d/ z/!ff! c =ba ^gf | ed"^dim" c!>(!B AF!>)! | E/ z/ A ce gf |!p!"^rit."[Q:1/4=70] e6 | %105
w: * Ô sou- ve- nirs ché-|ris! Ma mère, je la re-|vois, je re- vois mon vil-|la-|
[M:4/4][Q:1/4=69]"^Poco piu lento" A2- A z z4 | z8 | z2!mf! z A AA A>A | d2 dd d2 d>c | %109
w: ge *||Qui sait de quel dé-|mon j'al- lais ê- tre la|
 e2- e z z4 | z2!p! A4 AA | B2 z B cc c>c | d2- d z!<(! e2 ee | f4 ^g2 g>g | g4-!<)! g z!f! c>c | %115
w: proie! *|Mê- me de|loin ma mè- re me dé-|fend, * Et ce bai-|ser qu'el- le m'en-|voi- e, Ce bai-|
 a4- a/ z/ g f^e | f2 f/ z/ c =e"^dim"!>(!dBc!>)! | %117
w: ser * qu'el- le m'en-|voi- e E- car- te le pé-|
!<(! A"^rall."[Q:1/4=66]def[Q:1/4=60] =g3 c!<)! | d2 z2 z4 | z4 z2!p! c-c/ z/ | f2 z2 z4 | %121
w: ril et sau- ve son en-|fant!|Rien! *|Rien!|
 z2!p!"^senza rigore." (3^ddd f-f/ z/ (3edc | c^B z B (3BBB (3Bc^d | %123
w: Par- lons de toi, * la mes- sa-|gè- re, Tu vas re- tour- ner au pa-|
 e2- e z[Q:1/4=88]"^Allegro Moderato" z4 | z8 | z8 | z8 | z/!f! B/B/B/ e2 z3/2 e/ e-e/ z/ | %128
w: ys? *||||Tu la ver- ras! Et bien! *|
 (3eee"^dim"!>(! e4- e z!>)! ||[K:C]!p!"^express." e2 ee ffgg | g4 f z e2 | d2 (d d2 c)de | %132
w: tu lui di- ras: *|Que son fils l'aime et la vé-|nè- re Et|qu'il se re- pent au jour-|
 d4 z2 d2 | d4 cc d>d | f4 e z!<(! e^f!<)! |!<(! g4!<)! a3 d | g4- g z!p! g>g | c2 de =f3 c | %138
w: d'hui; Il|veut que là- bas sa|mè- re soit con-|ten- te de|lui! * Tout ce-|la, n'est ce pas, mi-|
 e4 d z gg | c2"^cresc."!<(! de f3 A | e4-!<)! e z e2- | e2!<(! ee ff g>g!<)! | g4 f z!ff! ee | %143
w: gnon- ne, De ma|part, tu le lui di-|ras! * Et|* ce bai- ser que je te|don- ne, De ma|
"^dim.""^portamento" (!fermata!a4{!fermata!d!fermata!e)} d!pp!^c"^rit."[Q:1/4=80] d>e | %144
w: part, tu le lui ren-|
[M:4/4] =c2- c z z2 z2 | z8 | z8 | z2[Q:1/4=72] z4 z!pp! E | %148
w: dras! *|||Ma|
[K:A][M:3/4][Q:1/4=88]"^Allegro Moderato" e2- ec fc | e2- e/ z/ f ga | (g2- gf) dB | %151
w: mè- * re, je la|vois! * oui, je re-|vois * * mon vil-|
 G2- G/ z/ A B^B | (c2- cA) dA |"^cresc."!<(! c2- c/ z/!<)! ^d ef | g2 g2 g2 | g4- g-g/ z/ | %156
w: la- ge! Ô sou- ve-|nirs * * d'au- tre-|fois, * doux sou- ve-|nirs du pa-|ys! * *|
!pp! a2 gf e2 | g2 f/ z/ e A-A/ z/ | f2 ed BG | E2- E z E2 | e4 f2 | e/ z/ A Bc de | f2- fd =gd | %163
w: Doux sou- ve- nirs|du * pay- ys! *|Ô sou- ve- nirs ché-|ris! * Ô|sou- ve-|nirs! Ô sou- ve- nirs ché-|ris * Vous rem- plis-|
 f2- f z d2 |!f! _b2- b z (a=g) | =f2- f^f{fa} =g>_e |!<(! _e2 d4-!<)! | d/ z/!ff! c =ba ^gf | %168
w: sez * mon|coeur * de *|for- * ce~et de cou-|ra- ge|* Ô sou- ve- nirs ché-|
 ed"^dim" c!>(!B AF!>)! | E/ z/ A ce gf | e6 |[Q:1/4=92] A2!pp! z (e fg | (g2 a)A Bc | %173
w: ris! Ma mère, je la re-|vois, je re- vois mon vil-|la-|ge! Je te re-|vois * ô mon vil-|
 e2 d/) z/ F GA | Bc de fg | (g2 a/) z/!<(! e ^d=d!<)! | (d2 c)!>(!a gf!>)! | %177
w: la- ge! Doux sou- ve-|nirs, sou- ve- nirs du pa-|ys! * Vous rem- plis-|sez mon coeur de cou-|
 (c2 d/) z/!pp! (f dc | BA Gf ed | c/) z/"^sempre" g!pp! a^d ec | (=d6 | c) z z2 z2 | z ^d e^e gf | %183
w: ra- ge, Ô sou- ve-|* ô sou- ve- nirs ché-|ris. Je re- vois mon vil-|la-|ge!|Ô sou- ve- nirs ché-|
 e2 z"^allarg."[Q:1/4=74] c ^Bc |"^dim"!>(! e2- ee ^de!>)! | f2- f/ z/ f ^ef |!ppp! b6- | %187
w: ris Vous me ren-|dez * tout mon cou-|ra- ge, Ô sou- ve-|nirs|
 b z f2 g2 |"^a tempo"[Q:1/4=84] a4- a z | z6 | z6 | z6 | z6 | z6 | z6 |] %195
w: * du pa-|ys *|||||||
V:2
[K:C] z6 | z6 | z6 | z2 z2 z!p! G | e2- ee fe | dc Bd cA | A2 G z dF | F2 E z z2 | z c dc BA | %9
w: |||J'ap-|por- * te de sa|part, fi- dè- le mes- sa-|gè- re, cet- te|let- tre,|Et puis un peu d'ar-|
 G2 z g ^fe | d^d eB cA | G2- G z z G | _A2- A z z2 | z4 z A | _B2- B/ z/"^rit.." B AB | %15
w: gent pour a- jou-|ter à vo- tre trai- te-|ment * Et|puis *|Et|puis * vrai- ment je|
"^a tempo" c2 B2 z G | e2 z e fe | dc Bd cA | A2 GB df | e2- e z z2 |!<(! e2 ^de ^fe!<)! | %21
w: n'o- se! Et|puis, et puis en-|core une au- tre cho- se|qui vaut mieux que l'ar-|gent, *|Et qui pour un bon|
 a2- a z d2 | ed ^cd ef | g2- g z z2 | z6 | z6 | z2 AB dc | e4- e z |!<(! z c de fg!<)! | %29
w: fils * Au-|ra sans dou- te plus de|prix. *|||Oui, je par- le-|rai. *|Ce que l'on m'a don-|
 a4- a!p! z |"^rit. molto" d2 Bc ed |"^a tempo" c3 z2 z | z6 | z6 | z6 |[M:4/4] z8 | %36
w: né, *|Je vous le don- ne-|rai.|||||
 z2!p! cc c2 cc | d3 d eeee | (f2 f) z c2 de | f4 B2 cd | e4- e z z!p! e |[M:2/4]{/f} e^d ed | %42
w: Vo- tre mère a- vec|moi sor- tait de la cha-|pel- le, Et c'est a-|lors qu'en m'em- bras-|sant: * Tu|vas, m'a t' elle|
 e2{/e} ae | c2 Bc | (B2 A/) z/ A | A^G BE | (E2 E/) z/ c | cB d=G | G2 G/ z/!mf! e | e^d g^f | %50
w: dit, t'en al-|ler à la|vil- le: La|rou- te n'est pas|lon- gue, u-|ne fois à Sé-|vil- le Tu|cher- che- ras mon|
"^cresc" (e!<(!^d) g^f | e-e/ z/ ^d!<)!^f |!f! a2- a/ z/ g | ^fe =dc |"^rit." B-B/ z/ eg | %55
w: fils, * mon Jo-|sé, * mon en-|fant! * Tu|cher- che- ras mon|fils, * mon Jo-|
 g2 ^f>B |[M:4/4] e4- e z!p!"^espr" e2- | eeee =f2 g>g | g4 f z ee | dd (d2- dc)de | d4- d z z2 | %61
w: sé, mon en-|fant * Et|* tu lui di- ras que sa|mè- re Son- ge|nuit et jour * * à l'ab-|sent, *|
 d2 dd cc d>d | f2- f z!<(! f2 e^f!<)! |!<(! g3 g!<)! a3 d | g4- g z!p! g>g | c2 de =f3 c | %66
w: Qu'el- le re- grette et qu'elle es-|pè- re, Qu'el- le par-|don- ne~et qu'el- le~at-|tend. * Tout ce-|la, n'est ce pas, mi-|
 e4 d z gg | c2"^cresc." de f3 A | e4- e z!f! e2- | e2!<(! ee ff g>g!<)! | g4 f z!ff! e>e | %71
w: gnon- ne, De ma|part, tu le lui di-|ras! * Et|* ce bai- ser que je te|don- ne, De ma|
"^dim." (!fermata!a4{!fermata!d!fermata!e)} d!pp!^c"^rit." d>e | =c2- c z z4 | z2 cc c2 d>e | %74
w: part, tu le lui ren-|dras *|Un bai- ser pour son|
 d2 z2 z4 | z2"^cresc" dd d2 e>f | e2!p! z"^rallent." e ^eeee | ^f z f2 gg f>g | %78
w: fils!|Un bai- ser pour son|fils! Jo- sé, je vous le|rends com- me je l'ai pro-|
"^a tempo" ^g2- g z z4 | z8 | z8 | z8 |[K:A][M:3/4] z6 | z6 | z6 | z6 | z6 | z6 | z2 z4 | %89
w: mis! *|||||||||||
 z4 z!pp! E | e2- ec fc | e2- e/ z/ f ga | (g2- gf) dB | G2- G/ z/ A B^B | (c2- c"^cresc"A) dA | %95
w: Sa|mè- re il la re-|voit! * Il * re-|voit * * son vil-|la- ge! ô sou- ve-|nirs * * d'au- tre-|
 c2 z A AA | a4 b2 | a/ z/ d ef =ga |!f! _b2- b z (a=g) | =f2- f^f{fa} =g>_e |!<(! _e2 d4-!<)! | %101
w: fois Sou- ve- nirs|du pa-|ys! Vous rem- plis- sez son|coeur * de *|for- * ce~et de cou-|ra- ge|
 d/ z/!ff! c =ba ^gf | ed"^dim" c!>(!B AF!>)! | E/ z/ A ce gf |!p! (e2!f! G4) |[M:4/4] A2- A z z4 | %106
w: * Ô sou- ve- nirs *|ris! Sa mère, il la re-|voit, il re- voit son vil-|la- *|ge *|
 z8 | z8 | z8 | z8 | z8 | z8 | z8 | z8 | z8 | z8 | z8 | z8 | %118
w: ||||||||||||
 z (3z/ D/D/ F (3z/ F/F/ A z/ A/ A/A/A/A/ | d2 (3z/ F/^G/(3A/G/F/ c-c/ z/ z2 | z8 | z8 | z8 | %123
w: Quel dé- mon? quel pé- ril? je ne com- prends pas|bien... Que veut di- re ce- la? *||||
 z4!f! c2 (3z ec | g4 G2 z g | g2 (=ag) (fe)^dc | B8 | E2 z2 z4 | z8 ||[K:C] z8 | z8 | z8 | z8 | %133
w: Oui ce soir|mê- me: de-|main je ver- rai * vo- tre|mè-|re!||||||
 z8 | z8 | z8 | z8 | z8 | z8 | z8 | z8 | z8 | z8 | z8 | %144
w: |||||||||||
[M:4/4] z2 z"^a tempo un poco riten."!pp! e eeee | ^A-A/ z/ ee e2 ee | %146
w: Oui, je vous le pro-|mets * de la part de son|
 g2 z"^rall.""^cresc."!<(! e e^d ^f>e!<)! | =a-a/ z/ ^c2"^dim."!>(! cB!>)! !fermata!d>^G | %148
w: fils, Jo- sé je le ren-|drai, * com- me je l'ai pro-|
[K:A][M:3/4] A2 z4 | z6 | z6 | z6 | z6 | z6 | z2 z4 | z4 z!pp! E | e2- ec fc | e2- e/ z/ f ga | %158
w: mis.|||||||Sa|mè- re il la re-|voit! * Il * re-|
 (g2- gf) dB | G2- G/ z/ A B^B | (c2- c"^cresc"A) dA | c2 z A AA | a4 b2 | a/ z/ d ef =ga | %164
w: voit * * son vil-|la- ge! ô sou- ve-|nirs * * d'au- tre-|fois Sou- ve- nirs|du pa-|ys! Vous rem- plis- sez son|
!f! _b2- b z (a=g) | =f2- f^f{fa} =g>_e |!<(! _e2 d4-!<)! | d/ z/!ff! c =ba ^gf | %168
w: coeur * de *|for- * ce~et de cou-|ra- ge|* Ô sou- ve- nirs *|
 ed"^dim" c!>(!B AF!>)! | E/ z/ A ce gf |!p!!<(! (e2!<)!!>(! G4)!>)! | A2!pp! z (e ^d=d | %172
w: ris! Sa mère, il la re-|voit, il re- voit son vil-|la- *|ge! Il te re-|
 (d2 c)a gf | c2 d/) z/ f dc | BA Gg fe | (^B2 c/) z/!<(! e fg!<)! | (b2 a)!>(!A Bc!>)! | %177
w: voit * ô mon vil-|la- ge! Doux sou- ve-|nirs, sou- ve- nirs du pa-|ys! * Vous rem- plis-|sez son coeur de cou-|
 (e2 d/) z/!pp! (F GA | Bc de fg | a) z z4 | z"^sempre" ^d!pp! e^e gf | =e/ z/ g a^d ec | (=d6 | %183
w: ra- ge, Ô sou- ve-|nirs, ô sou- ve- nirs ché-|ris.|Ô sou- ve- nirs ché-|ris! Il re- voit son vil-|la-|
 c2) z E ^DE | G2- GG ^^FG | ^D2- D/ z/ D ^^CD |!ppp! d6- | d z d2 d2 | c4- c z | z6 | z6 | z6 | %192
w: ge! Vous lui ren-|dez * tout son cou-|ra- ge, Ô sou- ve-|nirs|* du pa-|ys *||||
 z6 | z6 | z6 |] %195
w: |||
V:3
!p! !fermata![B,_D]6- | [B,D] z [B,_D]2 [B,D]2 | [F,A,C]4- [F,A,C] z |!>(! [EG]2 [=DF]2 [CE]2!>)! | %4
 [B,D]([F,B,D][F,B,D][F,B,D][^F,B,D][F,B,D]) | ([G,B,E][G,B,E][G,B,E][G,B,E][G,B,E][G,B,E]) | %6
 z ([=F,CE] [F,CE][F,CE]) z [G,CE] | z ([A,-C-E] [A,CD]) z z2 | z2 D2!<(! =E2 | %9
 F2!<)!!>(! G2 ^G2!>)! | [FA]-[FA]/ z/ z2!pp! [B,C=E]-[B,CE]/ z/ | [A,CF]-[A,CF]/ z/ z2 ([A,CF]2 | %12
 [B,_D_G]) z z2 [B,DG]2 | [B,DG] z z2!>(! ([B,DG]2 | [C_E_A])!>)! z z2 z2 | z!pp! (FG=A_Bc | %16
 d) z F2 ^F2 | G2 A2 G2 | C2 F2 C2 | D([A,CD][CDA][DAc] [Acd]) z | z6 | z (G!<(!Bcag!<)! | %22
!>(! f2 F)!>)! z z2 | z (FBdg[Bdf]) | z ([Bf]B[Be]d[_A=B]) | z [Gd][Gc]G_B[E^F] | %26
!>(! ([_D=EA][DEG])!>)! z4 | z ([B,=DF][DFB][FBd][Bdf][dfc'] | [fbd']) z z4 | %29
 z2!p!"_dim" ([=B,DG]2 [B,DG]2 | [CEc]2) z2!pp! [A,EF] z | B!p! (d'c'!<(!bag!<)! | f2-) (f^fag | %33
 =f)!p! (d=c!<(!BAG!<)! |!>(! F2-) (F^FGA!>)! |[M:4/4] [=DB]2)!pp! (B2 B2 B2) | z4 z2 b2- | %37
 (b2 _ag f4 | e2) z2 z2 f2- | f2 ed c4 | [D^FAd]2 (3.D.A.^f .d'2 z2 | %41
[M:2/4]!p! .[Bd].[A^c].[Bd].[Ac] | .[Bd].[gb].[dg].[Bd] | .[GB].[=EG].[_EA].[^FB] | %44
 .[EA].[C^F] .[DG] z |!pp! z (^F.A).D | .[B,D].[B,DG] .[DGB] z |!p! z (A.c).F | %48
 .[DF].[DFB] .[FBd] z |!p! z!<(! ([=E^c]!<)!!>(![Af][G=e])!>)! | %50
!p!!p! z!<(! ([=E^c]!<)!!>(![Af][G=e])!>)! |!p!!p! z ([=E^c][Af][G=e] |!>(! [B=eg]2!>)! [Af]2 | %53
 [DB]2 [B,D]2 | [A,DF]2-) [A,DF] z | [G,^C]2- [G,C] z | %56
[M:4/4] D!<(![Dd][Dd][Dd]!<)!!>(! [Dd][Dd][Dd][Dd]!>)! |!pp! (3DFB (3dBF (3[_EG]Be (3[F=A]Bf | %58
 (3FAB (3fBA (3[EG]Be (3[DF]Bd | (3=EBc (3=ecB (3FBd (3fdB | (3=EBc (3=ebc' (3b_ec (3BEC | %61
 (3FAc (3fcA (3DGB (3FAc | (3_EGc (3ecG (3DGB (3dBG |!<(! (3DFA (3dAF (3=EBc (3=ecB!<)! | %64
!>(! (3FAc (3fac' (3afc (3AFC!>)! | (3B,DF (3BFD (3B,_EG (3BGE | (3A,EF (3Aef (3afe (3AFE | %67
 (3DGB (3dBG (3EGc (3ecG |!<(! [D^FAd]2 [^f^f']2 [=f=f']2 [Aa]2!<)! | %69
!<(! (3[_Ad_a]DA (3BAD (3[CE]AB (3[DF]AB!<)! | (3DF_A (3=BAF (3EGc (3DGB | %71
 (3C=E_B c z!pp! [=A,_EF][A,EF]/ z/ z2 | %72
!p! (3z [B,B][B,B] (3[B,B][B,B][B,B] (3z [FBf][FBf] (3[FBf][FBf][FBf] | %73
!>(! (3z [FBf][FBf] (3[EBe][EBe][EBe] (3z [EBe][EBe] (3[DBd][DBd][DBd]!>)! | %74
!<(! (3z [CBc][CBc] (3[CBc][CBc][CBc] (3z [Gcg]!<)![Gcg] (3[Gcg][Gcg][Gcg] | %75
!>(! (3z [Gcg][Gcg] (3[Fcf][Fcf][Fcf] (3z [Fcf][Fcf] (3[Ece][Ece][Ece]!>)! | %76
!p! [Dcd] z!>(! z2!>)!"^colla voce" (^D4 | =E) z z2 (F4 | ^F) z (^f4 =e2) | (=ed=fe dced | %80
 c=B!f! g2-)!<(! g=ecA!<)! | ^F2"^rall." =B4 A2 |[K:G][M:3/4] (3[B,G](DE D2) [DGB]2 | %83
 (3[DGB](DE D2) [DGB]2 | (3[DFc](DE D2) [DFc]2 | (3[DFc](DE D2) [DFc]2 | (3[DGB](GA G2) [EGc]2 | %87
 (3[DFB](FG F2) [DFB]2 | (3[^CF^A](EF E2) [CFA]2 | (3[DFB](DE D2) [DFc]2 | [GB]4 [GB]2 | %91
 [GB]4 [GB]2 | [Fc]4 [Fc]2 | [Fc]4 [Fc]2 | [D=FB]2 (3[B,D]FB [EFc]2 | [D=FB]2 (3[B,D]FB [^FBd]2 | %96
 [E_Bce]2 (3[EG]Be [AB=f]2 | [G_Be]2 (3[EG]Be [Beg]2 | (3z C_E (3_Ac_e (3[eg]A[_d=f] | %99
 (3[_Ac_e]_EA (3ce=e (3[_d=f]G[_Bd] | (3z ([G_B_d]_D) (3z ([=Ac]C) (3z ([=DAc]C) | %101
!f! (3z =B,D (3G=Bd g z |!mf! (3z A,=E (3GA=e g z | [G,B,D]2- [G,B,D] z z2 | %104
 ([A,F]!<(![B,G] [DB]2!<)!!>(! [CA]2!>)! |[M:4/4] [B,G]2) z2 z4 | %106
 (3:2:5z2!f! (f'/4_e'/4d'/4e'/4 (3:2:6c') z!mf! (f/4_e/4d/4e/4 (3:2:6c) z!p! (F/4_E/4D/4E/4 C) z | %107
 .G, z z2!<(! z4!<)! | %108
!f! (3:2:5z2 (f/4_e/4d/4e/4 (3:2:6c) z!mf! (F/4_E/4D/4E/4 (3:2:6C) z[K:bass]!p! (F,/4_E,/4D,/4E,/4 C,) z | %109
 .G, z z2 z4 |[K:treble] z4 z2 [gg']2- | [gg']2 [=f=f'][ee'] [dd']4 | (=fedc d2) d'2- | %113
 ([dd']2 [cc'][Bb] [Aa]4 | [B^dfb]2) (3.B,.F.=d .b2 z2 |!f! z2 [G,G]2 ^D2 [Cc]2 | %116
!>(! [B,B]2 [E,E]2 [=F,=D=F]2!>)! [^F,C^F]2 | [=G,C=G]2 z2!pp! [=F,G,B,]2 z2 | [E,G,C]2 z2 z4 | %119
!mf! z [CGc] z2 z!p! [B,^FB] z [FB^d] | z!<(! B[B^ce]!<)![B^df] [Beg] z!>(! B,2!>)! | [G,^A,]8- | %122
 [G,A,] z z2 z4 | z2 ([^G,B,]2 [B,D]) z z2 | z2 [^A,F] z z4 |!p!!<(! [A,A]4 [B,B]4!<)! | %126
!<(! A^A^cB!<)!!>(! =AGFE!>)! |!p! D z z2!f! [dd'] z z2 | z2 (D2"_dim" D2 D2) || %129
[K:Bb]!pp! (3DFB (3dBF (3[EG]Be (3[F=A]Bf | (3FAB (3fBA (3[EG]Be (3[DF]Bd | %131
 (3=EBc (3=ecB (3FBd (3fdB | (3=EBc (3=ebc' (3bec (3BEC | (3FAc (3fcA (3DGB (3FAc | %134
 (3_EGc (3ecG (3DGB (3dBG | (3D!<(!FA (3dAF (3=EBc (3=ecB!<)! |!>(! (3FAc (3fac' (3afc (3AFC!>)! | %137
 (3B,DF (3BFD (3B,_EG (3BGE | (3A,EF (3Aef (3afe (3AFE | (3DGB (3dBG (3EGc (3ecG | %140
 [D^FAd]2 [^f^f']2 [=f=f']2 [Aa]2 |!<(! (3[_Ad_a]DA (3BAD (3[CE]AB (3[DF]AB!<)! | %142
 (3DF_A (3=BAF (3EGc (3DGB | (3C=E_B c z [=A,_EF]-[A,EF]/ z/ z2 |[M:4/4] [Bdb]4 [Aa]4 | %145
 [^Gd^g]4 [Aa]4 | [^Gd^g]2- [Gdg] z [^Fcd]4 | [d=g=b][=Bdg][=GBd][DGB] [^Fcd]2 z2 | %148
[K:G][M:3/4]!pp! (3[DGB](DE E2) [DGB]2 | (3[DGB](DE D2) [DGB]2 | (3[DFc](DE D2) [DFc]2 | %151
 (3[DFc](DE D2) [DFc]2 | (3[DGB](GA G2) [EGc]2 | (3[DFB](FG F2) [DFB]2 | (3[^CF^A](EF E2) [CFA]2 | %155
 (3[DFB](DE D2) [DF=c]2 | [GB]4 [GB]2 | [GB]4 [GB]2 | [Fc]4 [Fc]2 | [Fc]4 [Fc]2 | %160
 [D=FB]2 (3[B,D]FB [EFc]2 | [D=FB]2 (3[B,D]FB [FBd]2 | [E_Bce]2 (3[EG]Be [AB=f]2 | %163
 [G_Be]2 (3[EG]Be [Beg]2 | (3z C_E (3_Ac_e (3[eg]A[_d=f] | (3[_Ac_e]_EA (3ce[c=e] (3[_d=f]G[_Bd] | %166
 (3z ([G_B_d]_D) (3z ([=Ac]C) (3z ([=DAc]C) |!f! (3z =B,D (3GBd g z |!mf! (3z A,=E (3GA=e g z | %169
 [G,B,D]2- [G,B,D] z z2 |!<(! [A,F][B,G]!<)!!>(! [DB]2 [CA]2!>)! | [B,G] (D .[GB]) (D .[B,G]) z | %172
 z (D .[GBd]) (D .[GB]) z | z (D .[EGc]) (D .[Gce]) z | z (D .[CF]) (D .[CFA]) z | %175
 z (D .[B,G]) (D .[GB]) z | z (D .[GBd]) (D .[GB]) z | z (D .[Gce]) (D .[EGc]) z | %178
 z (D .[cf]) (D .[Fcd]) z | z ([^Af] .[Bg]) ([G^c] [Gd])([D^EB] | %180
 [DF=c]) .[F^c].[Fd].[F^d].[Ff].[F=e] | [G=d] ([^Af] [Bg]) ([G^c] [Gd])([D^EB] | %182
 [DF=c]) .[F^c].[Fd].[F^d].[Ff].[F=e] | [G=d] z z .[DGB].[^CG^A].[DGB] | %184
 [Fd]2- [Fd](.[FBd].[^EB^c].[FBd]) | [Ge]2- [Ge].[Ge].[G^d].[Ge] |!ppp! [GA=cea]6- | %187
 [GAcea] z [Ace]2 [Acf]2 |!pp! [gbd'g']2- [gbd'g']!<(![ff'][ee'][dd'] | %189
 [c=fgc'][Bb][Aa][Gg][Aa][Bb]!<)! |!>(! ([cegc'][Bb][Aa][Gg][Aa][Bb] | %191
 [c_egc'][Bb][Aa][Gg][Aa][Bb])!>)! |!pp! [dgbd']2- [dgbd'](.G.[GB].[GBd] | %193
 .[Bdg]) z (.[dgb]2 .[dgb]2 | [dgb]4- [dgb]) z |] %195
V:4
 [=E,G,]6- | [E,G,] z [=E,G,]2 [E,G,]2 | [F,,_E,]4- [F,,E,]2 | z6 |!pp! B,,6- | B,, z z4 | %6
 A,,4 G,,2 | ^F,,2 ^F, z z2 | [G,B,]6 | (A,2 B,2 =B,2) | C-C/ z/ z2 C,-C,/ z/ | F,,(F,=E,F,) z2 | %12
 z!<(! (F,!<)!!>(!=E,!>)!F,) z2 | z!<(! (F,!<)!!>(!=E,!>)!F,) z2 | %14
 z"^colla voce"!<(! (F,!<)!!>(!=E,!>)!F,) z2 | z2 (C4 | B,) z z4 | B,, z z4 | (A,,4 G,,2 | %19
 ^F,,2 ^F,) z z2 | ([=F,G,=B,]6 | [=E,_B,C]6 | [_E,F,A,]6 | [D,F,B,]) z z2 _A z | G4 F2 | E4 C2 | %26
 B,2- B, z z2 | [F,,F,]2 z2 z2 | z6 | z2 (F,2 F,2 | F,2) z2 [F,,F,] z | %31
 [_B,,,_B,,] z z2[K:treble] [=EB]2 |!>(! A2 A,2 A2!>)! | D z z2[K:bass] ([=E,B,-]2 | B,2 A,2 C2 | %35
[M:4/4] [B,,B,]2) z2 z4 | (G4 F4) | c2 (c4 B_A | (_A)GFE) (F4 | G2 E4 C2) | %40
 (3.D,,.A,,.^F, z2 z2 z2 |[M:2/4][K:treble] .G.E.G.E | .G.d.B.G | .D.^C.=C.D | .C.A, .B, z | %45
[K:bass] z (A,.G,).^F, | .[G,,G,] z z2 | z (C.B,).A, | .[B,,B,] z z2 | [G,B,]2- [G,B,] z | %50
 [G,B,]2- [G,B,] z |"^cresc" [G,B,]2- [G,B,] z | ^C,2 D,2 | =E,2 F,2 |"^colla voce" A,,2- A,, z | %55
!pp! A,,2- A,, z |[M:4/4] [D,F,]2- [D,F,] z z4 | F,4 G,2 =A,2 | (A,4 G,2) F,2 | [G,C]4 [A,D]4 | %60
 [G,B,C]4 C,4 | [F,A,C]4 [G,B,]2 [F,A,C]2 | [C,G,C]4 [G,B,]4 | [D,F,A,]4 [C,B,C]4 | %64
 [F,A,C]4- [F,A,C]2 z2 |!pp! [D,F,]4 [C,G,]4 | (F,2 F,2 F,2 F,2) | [G,B,]4 [C,G,C]4 | %68
 (3D,^F,A, (3D^FA (3=FDA, (3=F,D,F, | [B,,B,]8 | [E,_A,]6 E,2 | %71
!p! [C,G,_B,]2- [C,G,B,] z [F,,F,]-"^colla voce"[F,,F,]/ z/ z2 |!<(! B,,4!<)! A,4 | G,4 F,4 | %74
 E,4 B,4 | A,4 G,4 | ^F, (C!<(!=B,!<)!C) [=F,A,-=C-]4 | [=E,A,C] (C=B,C) [_E,A,C]4- | %78
 [E,A,C] z z2 [D,^A,]4 |"^cresc." =B,4 =E,2 A,2 | G,2 =F,2 =E,2 A,2 | D,2 G,2"^dim" ^F,4 | %82
[K:G][M:3/4]!pp! G,2 z2 D,2 | G,2 z2 D,2 | A,2 z2 D,2 | A,2 z2 D,2 | G,2 z2 E,2 | F,2 z2 F,2 | %88
 F,2 z2 F,,2 |"^dim" B,,2 z2 =A,,2 |!pp! [G,,D,]4 [D,,D,]2 | [G,,D,]4 [D,,D,]2 | %92
 [G,,D,]4 [D,,D,]2 | [A,,D,]4 [D,,D,]2 | (3G,,(G,A, G,4) | (3G,,(G,A, G,4) | (3C,(CD C4) | %97
 (3C,(CD C4) | [C,_E,_A,]4 [_D,,_D,]2 | [_E,,_E,]4 [E,,E,]2 | [=E,,=E,]2 [=F,,=F,]2 [^F,,^F,]2 | %101
 [G,,G,]2 [D,G,B,]2- [D,G,B,] z | [C,,C,]2 [C,E,G,A,]2- [C,E,G,A,] z | [D,,D,]2- [D,,D,] z z2 | %104
 (3z"_colla voce" D,E, D,2 D,,2 |[M:4/4] G,,2!p! ([G,G]2 [G,G]2 [G,G]2) | %106
 [_A,C^FG]4- [A,CFG] z z2 | [G,,,G,,]!pp! z ([G,,G,]2 [G,,G,]2 [G,,G,]2) | %108
 [_A,,C,F,G,]4- [A,,C,F,G,] z z2 | .[G,,,G,,] z z2[K:treble]!pp! G4 | [Ec]4 [DB]4 | ([Ac]4 [DB]4 | %112
 [CGc]2) z2 [B,DG]4 | [A,EA]4[K:bass] [^F,A,E]4 | (3.B,,,.F,,.^D, z2 z4 | [E,,,E,,]4 [F,,,F,,]4 | %116
"^dim" [G,,,G,,]2 [^G,,,^G,,]2 [A,,,A,,]2 [D,,D,]2 |"^colla voce" [=G,,E,]2 z2 [G,,D,]2 z2 | %118
 [C,,C,]2 z2"^colla voce" z4 | z [E,,E,] z z2 [^D,,^D,] z [A,,A,] | z G,,G,F, E, z z2 | %121
"^colla voce" [E,,^C,]8- | [E,,C,] z z2 z4 | z2 ([^E,,D,]2 [^G,,^D,]) z z2 | z2 [F,,^C,] z z4 | %125
 D,8 | [A,,G,]8 | [D,F,] z z2 [D,,D,] z z2 |!p! z8 ||[K:Bb] F,4 G,2 =A,2 | (A,4 G,2) F,2 | %131
 [G,C]4 [A,D]4 | [G,B,C]4 C,4 | [F,A,C]4 [G,B,]2 [F,A,C]2 | [C,G,C]4 [G,B,]4 | [D,F,A,]4 [C,B,C]4 | %136
 [F,A,C]4- [F,A,C]2 z2 | [D,F,]4 [C,G,]4 | (F,2 F,2 F,2 F,2) | [G,B,]4 [C,G,C]4 | %140
 (3D,^F,A, (3D^FA (3=FDA, (3=F,D,F, | [B,,B,]8 | [E,_A,]6 E,2 | %143
!p! [C,G,_B,]2- [C,G,B,] z [F,,F,]-"^colla voce"[F,,F,]/ z/ z2 |[M:4/4] .B,,.F,.D z .[B,F] z z2 | %145
 .B,,.F,.D z [B,F] z z2 | B,4 A,4 | D,4 D,2 z2 |[K:G][M:3/4] G,2 z2 D,2 | G,2 z2 D,2 | A,2 z2 D,2 | %151
 A,2 z2 D,2 | G,2 z2 E,2 | F,2 z2 F,2 | F,2 z2 F,,2 | B,,2 z2 =A,,2 | [G,,D,]4 [D,,D,]2 | %157
 [G,,D,]4 [D,,D,]2 | [G,,D,]4 [D,,D,]2 | [G,,D,]4 [D,,D,]2 | (3G,,(G,A, G,4) | (3G,,(G,A, G,4) | %162
 (3C,(CD C4) | (3C,(CD C4) | [C,_E,_A,]4 [_D,,_D,]2 | [_E,,_E,]4 [E,,E,]2 | %166
 [=E,,=E,]2 [=F,,=F,]2 [^F,,^F,]2 | [G,,G,]2 [D,G,B,]2- [D,G,B,] z | %168
 [C,,C,]2 [C,E,G,A,]2- [C,E,G,A,] z | [D,,D,]2- [D,,D,] z z2 |!p! (3z (D,E, D,2) D,,2 | %171
!pp! (3G,,D,D, (3D,D,D, (3D,D,D, | (3B,,D,D, (3D,D,D, (3D,D,D, | (3A,,D,D, (3D,D,D, (3D,D,D, | %174
 (3C,,D,D, (3D,D,D, (3D,D,D, | (3G,,D,D, (3D,D,D, (3D,D,D, | (3C,D,D, (3D,D,D, (3D,D,D, | %177
 (3A,,D,D, (3D,D,D, (3D,D,D, | (3D,,D,D, (3D,D,D, D, z | .[G,,G,] (^B, .D) (^A, B,)(^G, | %180
 A,) (.[A,=C].[A,C].[A,C].[A,C].[A,C] | .[G,B,]) (^B, .D) (^A, B,)(^G, | %182
 =A,) .[A,=C].[A,C].[A,C].[A,C].[A,C] | [G,B,] z .D.G, z2 |"^dim"!p! B,2- B, z z2 | %185
 ^C2- C.C.^B,.C | D,,A,,=C,E,A,C | E z D2 D2 |"^a tempo" (3(G,,D,G, (3B,G,D, (3B,G,D,) | %189
 (3(G,,=F,G, (3DG,F, (3DG,F,) | (3(G,,E,G, (3CG,E, (3CG,E,) | (3(G,,_E,G, (3CG,E, (3CG,E,) | %192
 G,,(.[D,G,B,].[G,B,D].[B,D] .D) z | z2[K:treble]"^smorz." (.[GB]2 .[GB]2) | [GB]4- [GB] z |] %195
V:5
 x6 | x6 | x6 | x6 | x6 | x6 | x6 | x6 | x2 D4- | [DF]6 | x6 | x6 | x6 | x6 | x6 | z2 (E4 | %16
 D) [B,D][B,D][B,D][B,D][B,D] | [B,E][B,E] [B,E][B,E] [B,E][B,E] | z [F,E][F,E][F,E] z [G,E] | x6 | %20
 x6 | x6 | x6 | x6 | x6 | x6 | x6 | x6 | x6 | x6 | x6 | _G, z z2 d2 | d4 ^c2 | d z z2 _D2 | %34
 C4 _E2 |[M:4/4] x8 | e4 d4 | e4 d4 | B2 z2 B4 | c2 G4 FE | x8 |[M:2/4] x4 | x4 | x4 | x4 | %45
 x C2 C | x4 | x E2 E | x4 | x4 | x4 | x4 | x4 | x4 | x4 | x4 |[M:4/4] x8 | x8 | x8 | x8 | x8 | %61
 x8 | x8 | x8 | x8 | x8 | x8 | x8 | x8 | x8 | x8 | x8 | x8 | x8 | x8 | x8 | x8 | x8 | x4 G4 | %79
 G2 ^G2 =A2 ^F2 | =G2 d2 G2 =E2 | D2 =E2!mp! C4 |[K:G][M:3/4] x6 | x6 | x6 | x6 | x6 | x6 | x6 | %89
 x6 | (3z DE D4 | (3z DE D4 | (3z DE D4 | (3z DE D2 z2 | x6 | x6 | x6 | x6 | x6 | x6 | x6 | x6 | %102
 x6 | x6 | x2 F4 |[M:4/4] x8 | x8 | x8 | x16/3[K:bass] x8/3 | x8 |[K:treble] x8 | z2 a4 g=f | %112
 g2 z2 d2 d2- | z2 e4 dc | x8 | x8 | x8 | x8 | x8 | x8 | x8 | x8 | x8 | x8 | x8 | x8 | ^C8 | x8 | %128
 x8 ||[K:Bb] x8 | x8 | x8 | x8 | x8 | x8 | x8 | x8 | x8 | x8 | x8 | x8 | x8 | x8 | x8 |[M:4/4] x8 | %145
 x8 | x8 | x8 |[K:G][M:3/4] x6 | x6 | x6 | x6 | x6 | x6 | x6 | x6 | (3z DE D4 | (3z DE D4 | %158
 (3z DE D4 | (3z DE D4 | x6 | x6 | x6 | x6 | x6 | x6 | x6 | x6 | x6 | x6 | x2 F4 | x6 | x6 | x6 | %174
 x6 | x6 | x6 | x6 | x6 | x6 | x6 | x6 | x6 | x6 | x6 | x6 | x6 | x6 | x6 | x6 | x6 | x6 | x6 | %193
 x6 | x6 |] %195
V:6
 x6 | x6 | x6 | x6 | x6 | x6 | x6 | x6 | x6 | x6 | x6 | x6 | x6 | x6 | x6 | z2 z2 (F,2 | B,,6-) | %17
 B,, z z4 | x6 | x6 | x6 | x6 | x6 | x6 | x6 | x6 | x6 | x6 | x6 | x6 | x6 | x4[K:treble] x2 | x6 | %33
 x4[K:bass] x2 | F,6 |[M:4/4] x8 | [EB]8 | E8 | E2 z2 (D4 | C4 =A,4) | x8 |[M:2/4][K:treble] x4 | %42
 x4 | x4 | x4 |[K:bass] D,4 | x4 | =F,4 | x4 | x4 | x4 | x4 | F,,4 | G,,4 | x4 | x4 |[M:4/4] x8 | %57
 B,,8 | E,6 F,2 | B,8 | x8 | x8 | x8 | x8 | x8 | x8 | F,,8 | x8 | x8 | x8 | %70
 =B,4"^dim." [G,C]2 G,2 | x8 | x8 | x8 | x8 | x8 | x8 | x8 | x8 | D,8 | =E,2 =B,,2 C,2 A,,2 | %81
 =B,,2 C,2 D,4 |[K:G][M:3/4] x6 | x6 | x6 | x6 | x6 | x6 | x6 | x6 | x6 | x6 | x6 | x6 | x6 | x6 | %96
 x6 | x6 | x6 | x6 | x6 | x6 | x6 | x6 | x6 |[M:4/4] x8 | x8 | x8 | x8 | x4[K:treble] x4 | [CG]8 | %111
 C8 | x8 | x4[K:bass] x4 | x8 | x8 | x8 | x8 | x8 | x8 | x8 | x8 | x8 | x8 | x8 | F,,4 =G,,4 | x8 | %127
 x8 | x8 ||[K:Bb] B,,8 | E,6 F,2 | B,8 | x8 | x8 | x8 | x8 | x8 | x8 | F,,8 | x8 | x8 | x8 | %142
 =B,4"^dim." [G,C]2 G,2 | x8 |[M:4/4] x8 | x8 | .B,,.F,.D z z4 | x8 |[K:G][M:3/4] x6 | x6 | x6 | %151
 x6 | x6 | x6 | x6 | x6 | x6 | x6 | x6 | x6 | x6 | x6 | x6 | x6 | x6 | x6 | x6 | x6 | x6 | x6 | %170
 x6 | x6 | x6 | x6 | x6 | x6 | x6 | x6 | x6 | x6 | D,6 | x6 | D,6 | x6 | z F, B,, z z2 | %185
 z =A, A,, z z2 | x6 | x6 | x6 | x6 | x6 | x6 | x6 | x2[K:treble] x4 | x6 |] %195

